X: 1
T:Frantic Rant
M:4/4
L:1/8
C:Taz Tarry
S:Copyright B.Tarry February 1992
R:Rant
K:C
(3sABcs|dBGB|dBGB|cA^FA cA^FA|GECE GECE|DEFG ABcA|!
dBGB|dBGB|cA^FA cA^FA|GECE GECE|DEFDC2||!
G,2|G,A,B,D E2C2|G,B,DEF2D2|G,B,DEG2E2|GFED C2:|
